X:461
L:1/8
Q:1/4=100
M:2/4
K:G
 B | B3 c | A2 z c | c3 d | B2 z d | ggff | ggaa | ffee | d3 c | B3 c | A3 c | c3 d | B2 z d | 
 ggdd | e3 a | ggff |"^not dotted in MS" g3 :: d | g3 d | ee z e | a3 e | ff z d' | c'bad' | 
 c'bad' | c'bag | fedc | BdBG | d3 d | g3 d | ee z e | a3 e | ff z d' | c'bag | fedg | a2 f2 | 
"^not dotted in MS" g3 :|

